X: 1424
T: Sleepy Maggie
R: reel
0: J.O'Neill
B: O'Neill's 1850 #1424
Z: Bob Safranek, rjs@gsp.org
Z: Compacted via repeats and multiple endings [JC]
M: C|
L: 1/8
K: Bm
|: f2(de) fBde | Tf2(df) eAce \
| {g}f2 (de) fBde | fgaf eAce :|
|: fBdB fBde | fBdB eAce |\
[1 fBdB eBde | f^gaf eAce :|\
[2 dcBc defg | abaf eAce ||
|: fBbB fBde | fBbB aAce \
|  fBbB aB^gB | fB^gB aAde :|
